X: 21
T:Dandy Pat (#71)
M:6/8
L:1/8
S:Capt. F. O'Neill
K:D
A|d2 d def|B2 B B2 A|c2 c cBA|d2 d d2 A|
d2 d def|B2 B B2 g|"tr"f2 e f2 g|a3-a2||
f/2g/2|a2 f a2 f|a3 agf|e2 f gfe|f2 g a2 z|
a2 f a2 f|a3 agf|e2 f g2 a|"tr"f2 e d2||
%
% This spirited air enjoyed no little popularity
% some fifty years ago when a song of that
% name to be found in "Hyland's Mammoth
% Hibernian Songster" was sung to it.

